**kern	**kern
*staff2	*staff1
*clefG2	*clefG2
*k[]	*k[]
*M3/4	*M3/4
*C:	*C:
=-	=-
4B 4d	8ff#L
.	8ggJ)
=183	=183
(4B 4d	12r
.	(12ff#L
.	12ggJ)
4c# 4e	12r
.	(12ff#L
.	12ggJ)
4d 4f	12r
.	(12ff#L
.	12ggJ)
=184	=184
4e) 4g	12r
.	(12ff#L
.	12ggJ
4r	12aaL
.	12ff#
.	12ggJ)
4r	([4eee
=185	=185
2.c# 2.e 2.a	8eeeL]
.	8dddJ
.	8ccc#L
.	8bb-J
.	8aaL
.	8ggJ)
=186	=186
4d 4f 4a	(4ee
4r	4ff)
4d 4f	4ff
=187	=187
(4d 4f	12r
.	(12eeL
.	12ffJ)
4B) 4d	12r
.	(12eeL
.	12ffJ)
4B 4d	12r
.	(12eeL
.	12ffJ)
=188	=188
*^	*
4d 4f	4r	12r
.	.	(12eeL
.	.	12ffJ)
4G	2G	(8fffL
.	.	8dddJ)
4d 4f	.	8bb'L
.	.	8ff'J
=189	=189	=189
4c 4e	4r	12r
.	.	(12dd#L
.	.	12eeJ)
4G	2G	(8eeeL
.	.	8cccJ)
4c 4e	.	8gg'L
.	.	8ee'J
=190	=190	=190
4B 4d	4G	8dd'L
.	.	8ee'J
4r	4r	8ff'L
.	.	8gg'J
4r	4r	8aa'L
.	.	8bb'J
*v	*v	*
=	=
*-	*-
